!!!!SEGMENT: pl-cz--iii-680--004_volckmer-augustin--missa-in-c-et-incarnatus.krn
!!!cenid: 17xx:1167
!!!COM: Volckmer, Augustin
!!!COM-rismID: pe30020656
!!!CDT: 1755-~1820
!!!CNT:
!!!OPR: Missa in C
!!!OTL: Et incarnatus
!!!OMV: 004
!!!PDT:
!!!AGN: Sacred; Mass
!!!SMS-siglum: PL-CZ
!!!SMS-shelfmark: III-680
!!!SMS-shelfwork: 001-004 M
!!!SMS-variant:
!!!SMS-altvar:
!!!NIFC-rismSourceID: 300001393
!!!NIFC-rismChildID: 300001393
!!!NIFC-islandoraID: pl-cz:40073
!!!URL-pdf-islandora: https://repozytorium.nifc.pl/islandora/object/pl-cz%3A40073/datastream/PDF/view
!!!URL-scan:
!!!ONB-nifc: UWAGA: części Mszy: Kyrie, Gloria, Credo, Et incarnatus, Et resurrexit, Sanctus, Benedictus, Agnus Dei, Dona nobis
!!!OMD: Adagio
!!!AIN: 1 alto 1 bass 1 clrno 2 cor 1 fagot 2 oboe 1 organ 1 soprn 1 tenor 1 timpa 1 viola 2 violn
!!!key: G
**kern	**fba	**dynam	**kern	**dynam	**kern	**dynam	**kern	**dynam	**kern	**text	**dynam	**kern	**text	**dynam	**kern	**text	**dynam	**kern	**text	**dynam	**kern	**kern	**kern	**dynam	**kern	**dynam	**kern	**dynam	**kern	**dynam	**kern	**dynam
*part15	*	*part15	*part14	*part14	*part13	*part13	*part12	*part12	*part11	*part11	*part11	*part10	*part10	*part10	*part9	*part9	*part9	*part8	*part8	*part8	*part7	*part6	*part5	*part5	*part4	*part4	*part3	*part3	*part2	*part2	*part1	*part1
*group6	*	*	*group5	*	*group5	*	*group5	*	*group4	*	*	*group4	*	*	*group4	*	*	*group4	*	*	*group3	*group2	*group2	*	*group2	*	*group1	*	*group1	*	*group1	*
*staff15	*	*	*staff14	*	*staff13	*	*staff12	*	*staff11	*staff11	*	*staff10	*staff10	*	*staff9	*staff9	*	*staff8	*staff8	*	*staff7	*staff6	*staff5	*	*staff4	*	*staff3	*	*staff2	*	*staff1	*
*I"Organo. e Fagotti.	*	*	*I"Viola. per ex pressivo.	*	*I"Violino Secundo.	*	*I"Violino Primo.	*	*I"Baſso.	*	*	*I"Tenore.	*	*	*I"Alto.	*	*	*I"[Canto]	*	*	*I"Timpano.	*I"Clarino. Primo	*I"Corno Secundo	*	*I"Corno Primo	*	*I"Organo. e Fagotti.	*	*I"Hoboi. Secundo	*	*I"Hoboi Primo.	*
*I'org	*	*	*I'vla	*	*I'vl 2	*	*I'vl 1	*	*I'B	*	*	*I'T	*	*	*I'A	*	*	*I'S	*	*	*I'timp	*I'clno 1 in C	*I'cor 2 in C	*	*I'cor 1 in C	*	*I'fag	*	*I'ob 2	*	*I'ob 1	*
*Iorgan	*	*	*Iviola	*	*Ivioln	*	*Ivioln	*	*Ibass	*	*	*Itenor	*	*	*Ialto	*	*	*Isoprn	*	*	*Itimpa	*Iclrno	*Icor	*	*Icor	*	*Ifagot	*	*Ioboe	*	*Ioboe	*
*ICklav	*	*	*ICstr	*	*ICstr	*	*ICstr	*	*ICvox	*	*	*ICvox	*	*	*ICvox	*	*	*ICvox	*	*	*ICidio	*ICbras	*ICbras	*	*ICbras	*	*ICww	*	*ICww	*	*ICww	*
*IGcont	*	*	*	*	*	*	*	*	*	*	*	*	*	*	*	*	*	*	*	*	*	*	*	*	*	*	*	*	*	*	*	*
*clefF4	*	*	*clefC3	*	*clefG2	*	*clefG2	*	*clefF4	*	*	*clefC4	*	*	*clefC3	*	*	*clefC1	*	*	*clefF4	*clefG2	*clefG2	*	*clefG2	*	*clefF4	*	*clefG2	*	*clefG2	*
*	*	*	*	*	*	*	*	*	*	*	*	*	*	*	*	*	*	*	*	*	*	*	*Trd0c0	*	*Trd0c0	*	*	*	*	*	*	*
*k[f#]	*	*	*k[f#]	*	*k[f#]	*	*k[f#]	*	*k[f#]	*	*	*k[]	*	*	*k[f#]	*	*	*k[f#]	*	*	*k[f#]	*k[f#]	*k[]	*	*k[]	*	*k[f#]	*	*k[f#]	*	*k[f#]	*
*G:	*	*	*G:	*	*G:	*	*G:	*	*G:	*	*	*G:	*	*	*G:	*	*	*G:	*	*	*G:	*G:	*G:	*	*G:	*	*G:	*	*G:	*	*G:	*
*M3/2	*	*	*M3/2	*	*M3/2	*	*M3/2	*	*M3/2	*	*	*M3/2	*	*	*M3/2	*	*	*M3/2	*	*	*M3/2	*M3/2	*M3/2	*	*M3/2	*	*M3/2	*	*M3/2	*	*M3/2	*
=1	=1	=1	=1	=1	=1	=1	=1	=1	=1	=1	=1	=1	=1	=1	=1	=1	=1	=1	=1	=1	=1	=1	=1	=1	=1	=1	=1	=1	=1	=1	=1	=1
*2\right	*	*	*	*	*	*	*	*	*2\right	*	*	*2\right	*	*	*2\right	*	*	*2\right	*	*	*	*	*	*	*	*	*2\right	*	*2\right	*	*2\right	*
!	!	!	!	!	!	!	!	!	!	!	!	!LO:TX:b:i:t=Dolce:color=red	!	!	!LO:TX:a:B:t=adagio	!	!	!	!	!	!	!	!	!	!	!	!	!	!	!	!LO:TX:b:i:t=Dolce:color=red	!
!	!	!	!LO:TX:b:i:t=Dolce:color=red	!	!	!	!	!	!LO:TX:b:i:t=Dolce:color=red	!	!	!LO:TX:a:B:t=N.B. Adagio	!	!	!	!	!	!LO:TX:b:i:t=Dolce:color=red	!	!	!	!	!	!	!	!	!	!	!LO:TX:b:i:t=Dolce:color=red	!	!LO:TX:a:B:t=NB adagio	!
!LO:TX:a:B:t=NB Adagio	!	!	!LO:TX:a:B:t=NB. Adagio	!	!LO:TX:a:B:t=NB&colon;adagio.	!LO:DY:a:t=piano:color=red	!LO:TX:a:B:t=NB Adagio.	!	!LO:TX:a:B:t=NB. Adagio	!	!	!	!	!	!LO:TX:b:i:t=Dolce:color=red	!	!	!LO:TX:a:B:t=NB. Adagio	!	!	!LO:TX:a:t=Et in Carnatus Tacet	!LO:TX:a:t=Et in Carnatus\nTacet	!LO:TX:a:B:t=NB. Adagio	!LO:DY:a	!LO:TX:a:B:t=NB. Adagio.	!LO:DY:a	!LO:TX:a:B:t=NB Adagio	!	!LO:TX:a:B:t=NB Adagio	!	!	!
!	!	!LO:DY:b:t=mezzo forto:color=red	!	!	!LO:TX:a:i:t=Dolce:color=red	!	!LO:N:vis=00	!	!	!	!	!	!	!	!	!	!	!	!	!	!	!	!	!LO:DY:a:t=piano:color=red	!LO:TX:t=in C.	!LO:DY:a:t=piano:color=red	!	!LO:DY:b:t=mezzo forto:color=red	!	!	!	!
2G\	3	mf	(4B/	.	(4d/	p	00.r	.	2G\	Et	.	2d\	Et	.	2b\	Et	.	2dd\	Et	.	1.ryy	1.ryy	1.G	p	1g	p	2G\yy	mfy	2b\	.	2dd\	.
.	.	.	4G/)	.	4B/)	.	.	.	.	.	.	.	.	.	.	.	.	.	.	.	.	.	.	.	.	.	.	.	.	.	.	.
2G\	3	.	(4B/	.	(4d/	.	.	.	2G\	in-	.	2d\	in-	.	2b\	in-	.	2dd\	in-	.	.	.	.	.	.	.	2G\yy	.	2b\	.	2dd\	.
.	.	.	4G/)	.	4B/)	.	.	.	.	.	.	.	.	.	.	.	.	.	.	.	.	.	.	.	.	.	.	.	.	.	.	.
2G\	3	.	(4B/	.	(4d/	.	.	.	2G\	-car-	.	2d\	-car-	.	2b\	-car-	.	2dd\	-car-	.	.	.	.	.	2g/	.	2G\yy	.	2b\	.	2dd\	.
.	.	.	4G/)	.	4B/)	.	.	.	.	.	.	.	.	.	.	.	.	.	.	.	.	.	.	.	.	.	.	.	.	.	.	.
=2	=2	=2	=2	=2	=2	=2	=2	=2	=2	=2	=2	=2	=2	=2	=2	=2	=2	=2	=2	=2	=2	=2	=2	=2	=2	=2	=2	=2	=2	=2	=2	=2
2G\	5 3	.	(4c/	.	(4e/	.	.	.	4G\	-na-	.	4e\	-na-	.	4b\	-na-	.	4dd#X\	-na-	.	1.ryy	1.ryy	2G/	.	2g/	.	2G\yy	.	4b\	.	(4dd#X\	.
.	.	.	4G/)	.	4c/)	.	.	.	4G\	-tus	.	4e\	-tus	.	4cc\	-tus	.	4ee\	-tus	.	.	.	.	.	.	.	.	.	4cc\	.	4ee\)	.
4G\	6 4	.	(4c/	.	(4e/	.	.	.	2G\	est	.	2e\	est	.	2cc\	est	.	2ee\	est	.	.	.	4r	.	4r	.	4G\yy	.	2cc\	.	2ee\	.
4GG|/	.	.	4G/)	.	4c/)	.	.	.	.	.	.	.	.	.	.	.	.	.	.	.	.	.	4G/	.	4g/	.	4GG|/yy	.	.	.	.	.
4C|/	.	.	(4c/	.	(4e/	.	.	.	2r	.	.	2r	.	.	2r	.	.	2r	.	.	.	.	4G/	.	4g/	.	4C|/yy	.	2r	.	2r	.
4E|/	.	.	4G/)	.	4c/)	.	.	.	.	.	.	.	.	.	.	.	.	.	.	.	.	.	4G/	.	4g/	.	4E|/yy	.	.	.	.	.
=3	=3	=3	=3	=3	=3	=3	=3	=3	=3	=3	=3	=3	=3	=3	=3	=3	=3	=3	=3	=3	=3	=3	=3	=3	=3	=3	=3	=3	=3	=3	=3	=3
2G\	6_ 4_	.	(4c/	.	(4e/	.	.	.	2G\	De	.	2e\	De	.	2cc\	De	.	2ee\	De	.	1.ryy	1.ryy	1G	.	1g	.	2G\yy	.	2cc\	.	2ee\	.
.	.	.	4G/)	.	4c/)	.	.	.	.	.	.	.	.	.	.	.	.	.	.	.	.	.	.	.	.	.	.	.	.	.	.	.
2G\	.	.	(4c/	.	(4e/	.	.	.	2G\	Spi-	.	2e\	Spi-	.	2cc\	Spi-	.	2ee\	Spi-	.	.	.	.	.	.	.	2G\yy	.	2cc\	.	2ee\	.
.	.	.	4G/)	.	4c/)	.	.	.	.	.	.	.	.	.	.	.	.	.	.	.	.	.	.	.	.	.	.	.	.	.	.	.
.	.	.	.	.	.	.	.	.	.	.	.	.	.	.	.	.	.	8qqaa/	.	.	.	.	.	.	.	.	.	.	.	.	(16qqaa/	.
2G\	8 6	.	(4c/	.	(4g/	.	.	.	4G\	-ri-	.	4e\	-ri-	.	4ee\	-ri-	.	4gg\	-ri-	.	.	.	2G/	.	2g/	.	2G\yy	.	(4ee\	.	4gg\)	.
.	7 5	.	4G/)	.	4e/)	.	.	.	4G\	-tu	.	4e\	-tu	.	8dd\L	-tu	.	8ff#\L	-tu	.	.	.	.	.	.	.	.	.	4cc\)	.	(8ff#\L	.
.	6_ 4_	.	.	.	.	.	.	.	.	.	.	.	.	.	8cc\J	.	.	8ee\J	.	.	.	.	.	.	.	.	.	.	.	.	8ee\J)	.
=4	=4	=4	=4	=4	=4	=4	=4	=4	=4	=4	=4	=4	=4	=4	=4	=4	=4	=4	=4	=4	=4	=4	=4	=4	=4	=4	=4	=4	=4	=4	=4	=4
2G\	.	.	(4c/	.	(4e/	.	.	.	2G\	San-	.	2e\	San-	.	2cc\	San-	.	2ee\	San-	.	1.ryy	1.ryy	2G/	.	2g/	.	2G\yy	.	2cc\	.	2ee\	.
.	.	.	4G/)	.	4c/)	.	.	.	.	.	.	.	.	.	.	.	.	.	.	.	.	.	.	.	.	.	.	.	.	.	.	.
4G\	5 3	.	(4B/	.	(4d/	.	.	.	2GG/	-cto	.	2d\	-cto	.	2b\	-cto	.	2dd\	-cto	.	.	.	4G/	.	4g/	.	4G\yy	.	2b\	.	2dd\	.
4GG|/	.	.	4G/)	.	4B/)	.	.	.	.	.	.	.	.	.	.	.	.	.	.	.	.	.	4G/	.	4g/	.	4GG|/yy	.	.	.	.	.
4BB|/	.	.	(4B/	.	(4d/	.	.	.	2r	.	.	2r	.	.	2r	.	.	2r	.	.	.	.	4G/	.	4g/	.	4BB|/yy	.	2r	.	2r	.
4D|/	.	.	4G/)	.	4B/)	.	.	.	.	.	.	.	.	.	.	.	.	.	.	.	.	.	4G/	.	4g/	.	4D|/yy	.	.	.	.	.
=5	=5	=5	=5	=5	=5	=5	=5	=5	=5	=5	=5	=5	=5	=5	=5	=5	=5	=5	=5	=5	=5	=5	=5	=5	=5	=5	=5	=5	=5	=5	=5	=5
!	!	!	!	!	!	!	!LO:N:vis=00	!	!	!	!	!	!	!	!	!	!	!	!	!	!	!	!LO:TX:a:t=1	!	!LO:TX:a:t=1	!	!	!	!	!	!	!
2F#\	.	.	(4A/	.	(4c/	.	00.r	.	2d\	Ex	.	2.d\	Ex	.	2a\	Ex	.	2cc\	Ex	.	1.ryy	1.ryy	1.r	.	1.r	.	2F#\yy	.	2a/	.	2cc\	.
.	.	.	4c/)	.	4d/)	.	.	.	.	.	.	.	.	.	.	.	.	.	.	.	.	.	.	.	.	.	.	.	.	.	.	.
2D\	.	.	(4A/	.	(4c/	.	.	.	2D\	Ma-	.	.	.	.	2f#\	Ma-	.	2a\	Ma-	.	.	.	.	.	.	.	2D\yy	.	2f#/	.	2a/	.
.	.	.	4c/)	.	4d/)	.	.	.	.	.	.	4d\	Ma-	.	.	.	.	.	.	.	.	.	.	.	.	.	.	.	.	.	.	.
4G\	.	.	(4G/	.	(4B/	.	.	.	4G\	-ri-	.	4d\	-ri-	.	8a\L	-ri-	.	8cc\L	-ri-	.	.	.	.	.	.	.	4G\yy	.	2g/	.	(8cc/L	.
.	.	.	.	.	.	.	.	.	.	.	.	.	.	.	8g\J	.	.	8b\J	.	.	.	.	.	.	.	.	.	.	.	.	8b/	.
4BB/	.	.	4B/)	.	4d/)	.	.	.	4B\	-a	.	4d\	-a	.	8c/L	-a	.	8a\L	-a	.	.	.	.	.	.	.	4BB/yy	.	.	.	8a/	.
.	.	.	.	.	.	.	.	.	.	.	.	.	.	.	8B/J	.	.	8g\J	.	.	.	.	.	.	.	.	.	.	.	.	8g/J)	.
!	!	!	!	!	!	!	!	!	!	!	!	!	!	!	!	!	!	!	!	!	!	!	!	!	!	!	!	!	!	!	!LO:LB:g=original	!
=6	=6	=6	=6	=6	=6	=6	=6	=6	=6	=6	=6	=6	=6	=6	=6	=6	=6	=6	=6	=6	=6	=6	=6	=6	=6	=6	=6	=6	=6	=6	=6	=6
2D\	4	.	(4G/	.	(4B/	.	.	.	2d\	Vir-	.	2d\	Vir-	.	2B/	Vir-	.	2g/	Vir-	.	1.ryy	1.ryy	2r	.	2r	.	2D\yy	.	2d/	.	2g/	.
.	.	.	4B/)	.	4d/)	.	.	.	.	.	.	.	.	.	.	.	.	.	.	.	.	.	.	.	.	.	.	.	.	.	.	.
2DD/	3	.	(4A/	.	(4c/	.	.	.	2D\	-gi-	.	2d\	-gi-	.	2A/	-gi-	.	2f#/	-gi-	.	.	.	2r	.	2r	.	2DD/yy	.	2c/	.	2f#/	.
.	.	.	4c/)	.	4d/)	.	.	.	.	.	.	.	.	.	.	.	.	.	.	.	.	.	.	.	.	.	.	.	.	.	.	.
*	*	*	*	*	*	*	*	*	*	*	*	*	*	*	*	*	*	*	*	*	*	*	*	*	*2\right	*	*	*	*	*	*	*
!	!	!	!	!	!	!	!	!	!	!	!	!	!	!	!	!	!	!	!	!	!	!	!	!LO:DY:b:rj:color=red	!	!	!	!	!	!	!	!
4GG/	.	.	(4G/	.	(4B/	.	.	.	4G\	-ne	.	4d\	-ne	.	4B/	-ne	.	4g/	-ne	.	.	.	2g/	p	2dd\	.	4GG/yy	.	4d/	.	(4g/	.
!	!	!	!	!	!	!	!	!	!LO:LB:g=original	!	!	!	!	!	!	!	!	!LO:LB:g=original	!	!	!	!	!	!	!	!	!	!	!	!	!	!
4BB/	.	.	4B/)	.	4d/)	.	.	.	4G\	et	.	4d\	et	.	4b\	Et	.	4gg\	Et	.	.	.	.	.	.	.	4BB/yy	.	4b\	.	4gg\)	.
!LO:LB:g=original	!	!	!	!	!	!	!	!	!	!	!	!LO:LB:g=original	!	!	!LO:LB:g=original	!	!	!	!	!	!	!	!	!	!	!	!LO:LB:g=original	!	!	!	!	!
=7	=7	=7	=7	=7	=7	=7	=7	=7	=7	=7	=7	=7	=7	=7	=7	=7	=7	=7	=7	=7	=7	=7	=7	=7	=7	=7	=7	=7	=7	=7	=7	=7
*	*	*	*	*	*	*	*	*	*	*	*	*	*	*	*	*	*	*	*	*	*	*	*2\right	*	*	*	*	*	*	*	*	*
4C/	.	.	(4A/	.	(4c/	.	.	.	4c\	ho-	.	4e\	ho-	.	8dd\L	ho-	.	8ff#\L	ho-	.	1.ryy	1.ryy	2cc\	.	2ee\	.	4C/yy	.	(8dd\L	.	(8ff#\L	.
.	.	.	.	.	.	.	.	.	.	.	.	.	.	.	8cc\J	.	.	8ee\J	.	.	.	.	.	.	.	.	.	.	8cc\	.	8ee\	.
4C/	.	.	4c/)	.	4e/)	.	.	.	4c\	-mo	.	4e\	-mo	.	8b\L	-mo	.	8dd\L	-mo	.	.	.	.	.	.	.	4C/yy	.	8b\	.	8dd\	.
.	.	.	.	.	.	.	.	.	.	.	.	.	.	.	8a\J	.	.	8cc\J	.	.	.	.	.	.	.	.	.	.	8a\J)	.	8cc\J)	.
*	*	*	*	*	*	*	*	*	*	*ij	*	*	*	*	*	*	*	*	*	*	*	*	*	*	*	*	*	*	*	*	*	*
!	!	!	!LO:LB:g=original	!	!	!	!	!	!	!	!	!	!	!	!	!	!	!	!	!	!	!	!	!	!	!	!	!	!	!	!	!
4D/	4	.	(4D/	.	(4B/	.	.	.	2.d\	ho-	.	2.d\	fac-	.	2g\	fac-	.	(2b\	fa-	.	.	.	2dd\	.	2dd\	.	4D/yy	.	2g/	.	2b\	.
4D/	.	.	4B/)	.	4d/)	.	.	.	.	.	.	.	.	.	.	.	.	.	.	.	.	.	.	.	.	.	4D/yy	.	.	.	.	.
4DD/	3	.	(4D/	.	(4c/	.	.	.	.	.	.	.	.	.	8b\L	.	.	8dd\L)	.	.	.	.	2dd\	.	2dd\	.	4DD/yy	.	(8b/L	.	(8dd\L	.
.	.	.	.	.	.	.	.	.	.	.	.	.	.	.	8a\J	.	.	8cc\J	.	.	.	.	.	.	.	.	.	.	8a/	.	8cc\	.
4DD/	.	.	4A/)	.	4d/)	.	.	.	4D\	-mo	.	4d\	-tus	.	8g\L	-tus	.	8b\L	-ctus	.	.	.	.	.	.	.	4DD/yy	.	8g/	.	8b\	.
*	*	*	*	*	*	*	*	*	*	*Xij	*	*	*	*	*	*	*	*	*	*	*	*	*	*	*	*	*	*	*	*	*	*
.	.	.	.	.	.	.	.	.	.	.	.	.	.	.	8f#\J	.	.	8a\J	.	.	.	.	.	.	.	.	.	.	8f#/J)	.	8a\J)	.
!	!	!	!	!	!LO:LB:g=original	!	!	!	!	!	!	!	!	!	!	!	!	!	!	!	!	!	!	!	!	!	!	!	!	!	!	!
=8	=8	=8	=8	=8	=8	=8	=8	=8	=8	=8	=8	=8	=8	=8	=8	=8	=8	=8	=8	=8	=8	=8	=8	=8	=8	=8	=8	=8	=8	=8	=8	=8
2G\	6_ 5_	.	(4D/	.	4c/	.	.	.	2G\	fac-	.	(1d	est	.	(1f#	est	.	(1a	est	.	1.ryy	1.ryy	1dd	.	1dd	.	2G\yy	.	1f#	.	1a	.
.	.	.	4A/)	.	4d/	.	.	.	.	.	.	.	.	.	.	.	.	.	.	.	.	.	.	.	.	.	.	.	.	.	.	.
2D\	.	.	(4D/	.	4c/	.	.	.	2D\	-tus	.	.	.	.	.	.	.	.	.	.	.	.	.	.	.	.	2D\yy	.	.	.	.	.
.	.	.	4A/)	.	4d/	.	.	.	.	.	.	.	.	.	.	.	.	.	.	.	.	.	.	.	.	.	.	.	.	.	.	.
2GG/	5 3	.	4G/	.	4B/	.	.	.	2GG/	est	.	2B\)	.	.	2d\)	.	.	2g\)	.	.	.	.	2g/	.	2dd\	.	2GG/yy	.	2g/	.	2g/	.
.	.	.	4r	.	4r	.	.	.	.	.	.	.	.	.	.	.	.	.	.	.	.	.	.	.	.	.	.	.	.	.	.	.
!	!	!	!	!	!	!	!	!	!	!	!	!	!	!	!	!	!	!	!	!	!	!	!	!	!	!	!	!	!LO:LB:g=original	!	!	!
=9	=9	=9	=9	=9	=9	=9	=9	=9	=9	=9	=9	=9	=9	=9	=9	=9	=9	=9	=9	=9	=9	=9	=9	=9	=9	=9	=9	=9	=9	=9	=9	=9
!LO:TX:a:t=7	!	!	!	!LO:DY:a	!	!	!LO:TX:b:i:t=Dolce:color=red	!LO:DY:b:t=piano:color=red	!LO:TX:a:t=7	!	!	!LO:TX:a:t=7	!	!	!LO:TX:a:t=7	!	!	!LO:TX:a:t=7	!	!	!	!	!LO:TX:a:t=7	!	!LO:TX:a:t=7	!	!LO:TX:a:t=7	!	!LO:TX:a:t=7	!	!LO:TX:a:t=7	!
!LO:N:vis=00	!	!	!	!LO:DY:a:t=mezzo forto:color=red	!	!	!	!	!LO:N:vis=00	!	!	!LO:N:vis=00	!	!	!LO:N:vis=00	!	!	!LO:N:vis=00	!	!	!	!	!LO:N:vis=00	!	!LO:N:vis=00	!	!LO:N:vis=00	!	!LO:N:vis=00	!	!LO:N:vis=00	!
00.r	.	.	4r	mf	4r	.	2g/	p	00.r	.	.	00.r	.	.	00.r	.	.	00.r	.	.	1.ryy	1.ryy	00.r	.	00.r	.	00.ryy	.	00.r	.	00.r	.
!	!	!	!	!	!	!LO:DY:a:t=pia:color=red	!	!	!	!	!	!	!	!	!	!	!	!	!	!	!	!	!	!	!	!	!	!	!	!	!	!
.	.	.	4G'/	.	4B'/	p	.	.	.	.	.	.	.	.	.	.	.	.	.	.	.	.	.	.	.	.	.	.	.	.	.	.
*	*	*	*	*	*	*	*2\right	*	*	*	*	*	*	*	*	*	*	*	*	*	*	*	*	*	*	*	*	*	*	*	*	*
.	.	.	4G'/	.	4B'/	.	2dd\	.	.	.	.	.	.	.	.	.	.	.	.	.	.	.	.	.	.	.	.	.	.	.	.	.
.	.	.	4G'/	.	4B'/	.	.	.	.	.	.	.	.	.	.	.	.	.	.	.	.	.	.	.	.	.	.	.	.	.	.	.
.	.	.	.	.	.	.	(16qqcc/	.	.	.	.	.	.	.	.	.	.	.	.	.	.	.	.	.	.	.	.	.	.	.	.	.
.	.	.	4G'/	.	4B'/	.	4b\)	.	.	.	.	.	.	.	.	.	.	.	.	.	.	.	.	.	.	.	.	.	.	.	.	.
.	.	.	.	.	.	.	(16qqa/	.	.	.	.	.	.	.	.	.	.	.	.	.	.	.	.	.	.	.	.	.	.	.	.	.
.	.	.	4G'/	.	4B'/	.	4g/)	.	.	.	.	.	.	.	.	.	.	.	.	.	.	.	.	.	.	.	.	.	.	.	.	.
=10	=10	=10	=10	=10	=10	=10	=10	=10	=10	=10	=10	=10	=10	=10	=10	=10	=10	=10	=10	=10	=10	=10	=10	=10	=10	=10	=10	=10	=10	=10	=10	=10
.	.	.	4r	.	4r	.	1f#	.	.	.	.	.	.	.	.	.	.	.	.	.	1.ryy	1.ryy	.	.	.	.	.	.	.	.	.	.
.	.	.	4D'/	.	4A'/	.	.	.	.	.	.	.	.	.	.	.	.	.	.	.	.	.	.	.	.	.	.	.	.	.	.	.
.	.	.	4D'/	.	4A'/	.	.	.	.	.	.	.	.	.	.	.	.	.	.	.	.	.	.	.	.	.	.	.	.	.	.	.
.	.	.	4D'/	.	4A'/	.	.	.	.	.	.	.	.	.	.	.	.	.	.	.	.	.	.	.	.	.	.	.	.	.	.	.
.	.	.	4E'/	.	4B'/	.	2g/	.	.	.	.	.	.	.	.	.	.	.	.	.	.	.	.	.	.	.	.	.	.	.	.	.
.	.	.	4E'/	.	4B'/	.	.	.	.	.	.	.	.	.	.	.	.	.	.	.	.	.	.	.	.	.	.	.	.	.	.	.
=11	=11	=11	=11	=11	=11	=11	=11	=11	=11	=11	=11	=11	=11	=11	=11	=11	=11	=11	=11	=11	=11	=11	=11	=11	=11	=11	=11	=11	=11	=11	=11	=11
.	.	.	4r	.	4r	.	(8fn/L	.	.	.	.	.	.	.	.	.	.	.	.	.	1.ryy	1.ryy	.	.	.	.	.	.	.	.	.	.
.	.	.	.	.	.	.	8e/J)	.	.	.	.	.	.	.	.	.	.	.	.	.	.	.	.	.	.	.	.	.	.	.	.	.
.	.	.	4C'/	.	4G'/	.	2e/	.	.	.	.	.	.	.	.	.	.	.	.	.	.	.	.	.	.	.	.	.	.	.	.	.
.	.	.	4C'/	.	4G'/	.	.	.	.	.	.	.	.	.	.	.	.	.	.	.	.	.	.	.	.	.	.	.	.	.	.	.
.	.	.	4C'/	.	4G'/	.	4ee|\	.	.	.	.	.	.	.	.	.	.	.	.	.	.	.	.	.	.	.	.	.	.	.	.	.
.	.	.	4C'/	.	4A'/	.	4cc|\	.	.	.	.	.	.	.	.	.	.	.	.	.	.	.	.	.	.	.	.	.	.	.	.	.
.	.	.	4C'/	.	4A'/	.	4a|\	.	.	.	.	.	.	.	.	.	.	.	.	.	.	.	.	.	.	.	.	.	.	.	.	.
=12	=12	=12	=12	=12	=12	=12	=12	=12	=12	=12	=12	=12	=12	=12	=12	=12	=12	=12	=12	=12	=12	=12	=12	=12	=12	=12	=12	=12	=12	=12	=12	=12
.	.	.	4r	.	4r	.	(2dd\	.	.	.	.	.	.	.	.	.	.	.	.	.	1.ryy	1.ryy	.	.	.	.	.	.	.	.	.	.
.	.	.	4D'/	.	4B'/	.	.	.	.	.	.	.	.	.	.	.	.	.	.	.	.	.	.	.	.	.	.	.	.	.	.	.
.	.	.	4D'/	.	4B'/	.	4b\)	.	.	.	.	.	.	.	.	.	.	.	.	.	.	.	.	.	.	.	.	.	.	.	.	.
.	.	.	4D'/	.	4B'/	.	4g/	.	.	.	.	.	.	.	.	.	.	.	.	.	.	.	.	.	.	.	.	.	.	.	.	.
.	.	.	4D'/	.	4c'/	.	(8a/L	.	.	.	.	.	.	.	.	.	.	.	.	.	.	.	.	.	.	.	.	.	.	.	.	.
.	.	.	.	.	.	.	8g/	.	.	.	.	.	.	.	.	.	.	.	.	.	.	.	.	.	.	.	.	.	.	.	.	.
.	.	.	4D'/	.	4c'/	.	8a/	.	.	.	.	.	.	.	.	.	.	.	.	.	.	.	.	.	.	.	.	.	.	.	.	.
.	.	.	.	.	.	.	8b/J)	.	.	.	.	.	.	.	.	.	.	.	.	.	.	.	.	.	.	.	.	.	.	.	.	.
=13	=13	=13	=13	=13	=13	=13	=13	=13	=13	=13	=13	=13	=13	=13	=13	=13	=13	=13	=13	=13	=13	=13	=13	=13	=13	=13	=13	=13	=13	=13	=13	=13
!LO:N:vis=0	!	!	!	!	!	!	!	!	!LO:N:vis=0	!	!	!LO:N:vie=0	!	!	!LO:N:vis=0	!	!	!LO:N:vis=0	!	!	!	!	!LO:N:vis=0	!	!LO:N:vis=0	!	!LO:N:vis=0	!	!LO:N:vis=0	!	!LO:N:vis=0	!
0.r	.	.	4G/	.	(8B/L	.	4g|/	.	0.r	.	.	0.r	.	.	0.r	.	.	0.r	.	.	1.ryy	1.ryy	0.r	.	0.r	.	0.ryy	.	0.r	.	0.r	.
.	.	.	.	.	8d/	.	.	.	.	.	.	.	.	.	.	.	.	.	.	.	.	.	.	.	.	.	.	.	.	.	.	.
.	.	.	4G/	.	8B/	.	4r	.	.	.	.	.	.	.	.	.	.	.	.	.	.	.	.	.	.	.	.	.	.	.	.	.
.	.	.	.	.	8d/J)	.	.	.	.	.	.	.	.	.	.	.	.	.	.	.	.	.	.	.	.	.	.	.	.	.	.	.
.	.	.	4G/	.	(8B/L	.	4gg|\	.	.	.	.	.	.	.	.	.	.	.	.	.	.	.	.	.	.	.	.	.	.	.	.	.
.	.	.	.	.	8d/	.	.	.	.	.	.	.	.	.	.	.	.	.	.	.	.	.	.	.	.	.	.	.	.	.	.	.
.	.	.	4G/	.	8B/	.	4r	.	.	.	.	.	.	.	.	.	.	.	.	.	.	.	.	.	.	.	.	.	.	.	.	.
.	.	.	.	.	8d/J)	.	.	.	.	.	.	.	.	.	.	.	.	.	.	.	.	.	.	.	.	.	.	.	.	.	.	.
!	!	!	!	!	!	!	!LO:LB:g=original	!	!	!	!	!	!	!	!	!	!	!	!	!	!	!	!	!	!	!	!	!	!	!	!	!
.	.	.	4F#/	.	(8c/L	.	(8a/L	.	.	.	.	.	.	.	.	.	.	.	.	.	.	.	.	.	.	.	.	.	.	.	.	.
.	.	.	.	.	8d/	.	8g/	.	.	.	.	.	.	.	.	.	.	.	.	.	.	.	.	.	.	.	.	.	.	.	.	.
.	.	.	4F#/	.	8c/	.	8a/	.	.	.	.	.	.	.	.	.	.	.	.	.	.	.	.	.	.	.	.	.	.	.	.	.
.	.	.	.	.	8d/J)	.	8b/J)	.	.	.	.	.	.	.	.	.	.	.	.	.	.	.	.	.	.	.	.	.	.	.	.	.
=14	=14	=14	=14	=14	=14	=14	=14	=14	=14	=14	=14	=14	=14	=14	=14	=14	=14	=14	=14	=14	=14	=14	=14	=14	=14	=14	=14	=14	=14	=14	=14	=14
.	.	.	4G/	.	(8B/L	.	4g|/	.	.	.	.	.	.	.	.	.	.	.	.	.	1.ryy	1.ryy	.	.	.	.	.	.	.	.	.	.
.	.	.	.	.	8d/	.	.	.	.	.	.	.	.	.	.	.	.	.	.	.	.	.	.	.	.	.	.	.	.	.	.	.
.	.	.	4G/	.	8B/	.	4r	.	.	.	.	.	.	.	.	.	.	.	.	.	.	.	.	.	.	.	.	.	.	.	.	.
.	.	.	.	.	8d/J)	.	.	.	.	.	.	.	.	.	.	.	.	.	.	.	.	.	.	.	.	.	.	.	.	.	.	.
.	.	.	4G/	.	(8B/L	.	4gg|\	.	.	.	.	.	.	.	.	.	.	.	.	.	.	.	.	.	.	.	.	.	.	.	.	.
.	.	.	.	.	8d/	.	.	.	.	.	.	.	.	.	.	.	.	.	.	.	.	.	.	.	.	.	.	.	.	.	.	.
.	.	.	4G/	.	8B/	.	4r	.	.	.	.	.	.	.	.	.	.	.	.	.	.	.	.	.	.	.	.	.	.	.	.	.
.	.	.	.	.	8d/J)	.	.	.	.	.	.	.	.	.	.	.	.	.	.	.	.	.	.	.	.	.	.	.	.	.	.	.
.	.	.	4F#/	.	(8c/L	.	(8a/L	.	.	.	.	.	.	.	.	.	.	.	.	.	.	.	.	.	.	.	.	.	.	.	.	.
.	.	.	.	.	8d/	.	8g/	.	.	.	.	.	.	.	.	.	.	.	.	.	.	.	.	.	.	.	.	.	.	.	.	.
.	.	.	4F#/	.	8c/	.	8a/	.	.	.	.	.	.	.	.	.	.	.	.	.	.	.	.	.	.	.	.	.	.	.	.	.
.	.	.	.	.	8d/J)	.	8b/J)	.	.	.	.	.	.	.	.	.	.	.	.	.	.	.	.	.	.	.	.	.	.	.	.	.
!	!	!	!LO:LB:g=original	!	!LO:LB:g=original	!	!	!	!	!	!	!	!	!	!	!	!	!	!	!	!	!	!	!	!	!	!	!	!	!	!	!
=15	=15	=15	=15	=15	=15	=15	=15	=15	=15	=15	=15	=15	=15	=15	=15	=15	=15	=15	=15	=15	=15	=15	=15	=15	=15	=15	=15	=15	=15	=15	=15	=15
1.r	.	.	4d 4G/	.	4B/	.	4g/	.	1.r	.	.	1.r	.	.	1.r	.	.	1.r	.	.	1.ryy	1.ryy	1.r	.	1.r	.	1.ryy	.	1.r	.	1.r	.
.	.	.	4r	.	4r	.	4r	.	.	.	.	.	.	.	.	.	.	.	.	.	.	.	.	.	.	.	.	.	.	.	.	.
.	.	.	4d 4G/	.	4B/	.	4gg|\	.	.	.	.	.	.	.	.	.	.	.	.	.	.	.	.	.	.	.	.	.	.	.	.	.
.	.	.	4r	.	4r	.	4r	.	.	.	.	.	.	.	.	.	.	.	.	.	.	.	.	.	.	.	.	.	.	.	.	.
.	.	.	2r	.	2r	.	2r	.	.	.	.	.	.	.	.	.	.	.	.	.	.	.	.	.	.	.	.	.	.	.	.	.
=16	=16	=16	=16	=16	=16	=16	=16	=16	=16	=16	=16	=16	=16	=16	=16	=16	=16	=16	=16	=16	=16	=16	=16	=16	=16	=16	=16	=16	=16	=16	=16	=16
!	!	!	!LO:TX:a:i:t=Dolce:color=red	!	!LO:TX:a:i:t=Dolce:color=red	!	!LO:TX:a:t=4	!	!	!	!	!LO:TX:b:i:t=Dolce:color=red	!	!	!LO:TX:b:i:t=Dolce:color=red	!	!	!LO:TX:b:i:t=Dolce:color=red	!	!	!	!	!	!LO:DY:a:t=pia:color=red	!	!LO:DY:a:t=pia:color=red	!	!	!LO:TX:b:i:t=Dolce:color=red	!	!LO:TX:b:i:t=Dolce:color=red	!
!	!	!	!	!	!	!LO:DY:b:rj:color=red	!LO:N:vis=00	!	!	!	!	!	!	!	!	!	!	!	!	!	!	!	!	!	!	!	!	!	!	!	!	!
2G\	5 3	.	(4B/	.	(4d/	p	00.r	.	2G\	Et	.	2d\	Et	.	2b\	Et	.	2dd\	Et	.	1.ryy	1.ryy	1G	p	2g/	p	2G\yy	.	2b\	.	2dd\	.
.	.	.	4G/)	.	4B/)	.	.	.	.	.	.	.	.	.	.	.	.	.	.	.	.	.	.	.	.	.	.	.	.	.	.	.
2G\	.	.	(4B/	.	(4d/	.	.	.	2G\	in-	.	2d\	in-	.	2b\	in-	.	2dd\	in-	.	.	.	.	.	1g	.	2G\yy	.	2b\	.	2dd\	.
.	.	.	4G/)	.	4B/)	.	.	.	.	.	.	.	.	.	.	.	.	.	.	.	.	.	.	.	.	.	.	.	.	.	.	.
2G\	.	.	(4B/	.	(4d/	.	.	.	2G\	-car-	.	2d\	-car-	.	2b\	-car-	.	2dd\	-car-	.	.	.	2G/	.	.	.	2G\yy	.	2b\	.	2dd\	.
.	.	.	4G/)	.	4B/)	.	.	.	.	.	.	.	.	.	.	.	.	.	.	.	.	.	.	.	.	.	.	.	.	.	.	.
!	!	!	!	!	!	!	!	!	!	!	!	!	!	!	!	!	!	!	!	!	!	!	!LO:LB:g=original	!	!LO:LB:g=original	!	!	!	!	!	!	!
=17	=17	=17	=17	=17	=17	=17	=17	=17	=17	=17	=17	=17	=17	=17	=17	=17	=17	=17	=17	=17	=17	=17	=17	=17	=17	=17	=17	=17	=17	=17	=17	=17
2G\	6 4	.	(4c/	.	(4e/	.	.	.	4G\	-na-	.	4e\	-na-	.	4b\	-na-	.	4dd#X\	-na-	.	1.ryy	1.ryy	2.G/	.	2.g/	.	2G\yy	.	(4b\	.	(4dd#X\	.
.	.	.	4G/)	.	4c/)	.	.	.	4G\	-tus	.	4e\	-tus	.	4cc\	-tus	.	4ee\	-tus	.	.	.	.	.	.	.	.	.	4cc\)	.	4ee\)	.
4G\	.	.	(4c/	.	(4e/	.	.	.	2G\	est	.	2e\	est	.	2cc\	est	.	2ee\	est	.	.	.	.	.	.	.	4G\yy	.	2cc\	.	2ee\	.
4GG|/	.	.	4G/)	.	4c/)	.	.	.	.	.	.	.	.	.	.	.	.	.	.	.	.	.	4G/	.	4g/	.	4GG|/yy	.	.	.	.	.
4C|/	.	.	(4c/	.	(4e/	.	.	.	2r	.	.	2r	.	.	2r	.	.	2r	.	.	.	.	4G/	.	4g/	.	4C|/yy	.	2r	.	2r	.
4E|/	.	.	4G/)	.	4c/)	.	.	.	.	.	.	.	.	.	.	.	.	.	.	.	.	.	4G/	.	4g/	.	4E|/yy	.	.	.	.	.
=18	=18	=18	=18	=18	=18	=18	=18	=18	=18	=18	=18	=18	=18	=18	=18	=18	=18	=18	=18	=18	=18	=18	=18	=18	=18	=18	=18	=18	=18	=18	=18	=18
2G\	6_ 4_	.	(4c/	.	(4e/	.	.	.	2G\	De	.	2e\	De	.	2cc\	De	.	2ee\	De	.	1.ryy	1.ryy	1G	.	1g	.	2G\yy	.	2cc\	.	2ee\	.
.	.	.	4G/)	.	4c/)	.	.	.	.	.	.	.	.	.	.	.	.	.	.	.	.	.	.	.	.	.	.	.	.	.	.	.
2G\	.	.	(4c/	.	(4e/	.	.	.	2G\	Spi-	.	2e\	Spi-	.	2cc\	Spi-	.	2ee\	Spi-	.	.	.	.	.	.	.	2G\yy	.	2cc\	.	2ee\	.
.	.	.	4G/)	.	4c/)	.	.	.	.	.	.	.	.	.	.	.	.	.	.	.	.	.	.	.	.	.	.	.	.	.	.	.
.	.	.	.	.	.	.	.	.	.	.	.	.	.	.	.	.	.	8qqaa/	.	.	.	.	.	.	.	.	.	.	.	.	(16qqaa/	.
2G\	x x	.	(4c/	.	(4g/	.	.	.	4G\	-ri-	.	4e\	-ri-	.	4ee\	-ri-	.	4gg\	-ri-	.	.	.	2G/	.	2g/	.	2G\yy	.	4ee\	.	4gg\)	.
.	.	.	4G/)	.	4e/)	.	.	.	4G\	-tu	.	4e\	-tu	.	4cc\	-tu	.	8ff#\L	-tu	.	.	.	.	.	.	.	.	.	8dd\L	.	(8ff#\L	.
.	.	.	.	.	.	.	.	.	.	.	.	.	.	.	.	.	.	8ee\J	.	.	.	.	.	.	.	.	.	.	8cc\J	.	8ee\J)	.
!	!	!	!	!	!	!	!	!	!	!	!	!	!	!	!	!	!	!LO:LB:g=original	!	!	!	!	!	!	!	!	!	!	!	!	!	!
=19	=19	=19	=19	=19	=19	=19	=19	=19	=19	=19	=19	=19	=19	=19	=19	=19	=19	=19	=19	=19	=19	=19	=19	=19	=19	=19	=19	=19	=19	=19	=19	=19
2G\	6 4	.	(4c/	.	4e/	.	.	.	2G\	San-	.	2e\	San-	.	2cc\	San-	.	2ee\	San-	.	1.ryy	1.ryy	2.G/	.	2.g/	.	2G\yy	.	2cc\	.	2ee\	.
.	.	.	4G/)	.	4c/	.	.	.	.	.	.	.	.	.	.	.	.	.	.	.	.	.	.	.	.	.	.	.	.	.	.	.
2GG/	5 3	.	2B/	.	2d/	.	.	.	2GG/	-cto	.	2d\	-cto	.	2b\	-cto	.	2dd\	-cto	.	.	.	.	.	.	.	2GG/yy	.	2b\	.	2dd\	.
.	.	.	.	.	.	.	.	.	.	.	.	.	.	.	.	.	.	.	.	.	.	.	4G/	.	4g/	.	.	.	.	.	.	.
2r	.	.	2r	.	2r	.	.	.	2r	.	.	2r	.	.	2r	.	.	2r	.	.	.	.	4G/	.	4g/	.	2ryy	.	2r	.	2r	.
.	.	.	.	.	.	.	.	.	.	.	.	.	.	.	.	.	.	.	.	.	.	.	4G/	.	4g/	.	.	.	.	.	.	.
!	!	!	!	!	!	!	!	!	!LO:LB:g=original	!	!	!	!	!	!	!	!	!	!	!	!	!	!	!	!	!	!	!	!	!	!	!
=20	=20	=20	=20	=20	=20	=20	=20	=20	=20	=20	=20	=20	=20	=20	=20	=20	=20	=20	=20	=20	=20	=20	=20	=20	=20	=20	=20	=20	=20	=20	=20	=20
!	!	!	!	!LO:DY:a:t=forto:color=red	!	!	!	!	!	!	!LO:DY:b:t=forto:color=red	!	!	!LO:DY:a:t=forto:color=red	!	!	!LO:DY:b:t=forto:color=red	!	!	!LO:DY:b:t=forto:color=red	!	!	!LO:TX:a:t=4	!	!LO:TX:a:t=4	!	!	!	!	!	!LO:TX:a:t=4	!
!	!	!LO:DY:b:t=forto:color=red	!	!	!	!LO:DY:b:t=forto:color=red	!	!LO:DY:b:rj:t=forto:color=red	!	!	!	!	!	!	!	!	!	!	!	!	!	!	!LO:N:vis=00	!	!LO:N:vis=00	!	!	!LO:DY:b:t=forto:color=red	!LO:N:vis=00	!	!LO:N:vis=00	!
2AA/	5_ #_	f	(4c#X/	f	2cc#X\	f	2ee 2a\	f	2A\	Ex	f	2c#X\	Ex	f	2a\	Ex	f	2ee\	Ex	f	1.ryy	1.ryy	00.r	.	00.r	.	2AA/yy	fy	00.r	.	00.r	.
.	.	.	4A/)	.	.	.	.	.	.	.	.	.	.	.	.	.	.	.	.	.	.	.	.	.	.	.	.	.	.	.	.	.
4A\	.	.	(4c#/	.	2cc#\	.	2ee 2a\	.	2G\	Ma-	.	2c#\	Ma-	.	2a\	Ma-	.	2ee\	Ma-	.	.	.	.	.	.	.	4A\yy	.	.	.	.	.
4G\	.	.	4A/)	.	.	.	.	.	.	.	.	.	.	.	.	.	.	.	.	.	.	.	.	.	.	.	4G\yy	.	.	.	.	.
4F#\	4 6	.	(4d/	.	4dd\	.	(4ff# 4a\	.	4F#\	-ri-	.	4d\	-ri-	.	4a\	-ri-	.	4ff#\	-ri-	.	.	.	.	.	.	.	4F#\yy	.	.	.	.	.
4D\	8 3	.	4A/)	.	4f#/	.	4dd\)	.	4D\	-a	.	4A\	-a	.	4f#\	-a	.	4dd\	-a	.	.	.	.	.	.	.	4D\yy	.	.	.	.	.
!LO:LB:g=original	!	!	!	!	!	!	!	!	!	!	!	!LO:LB:g=original	!	!	!LO:LB:g=original	!	!	!	!	!	!	!	!	!	!	!	!LO:LB:g=original	!	!	!	!	!
=21	=21	=21	=21	=21	=21	=21	=21	=21	=21	=21	=21	=21	=21	=21	=21	=21	=21	=21	=21	=21	=21	=21	=21	=21	=21	=21	=21	=21	=21	=21	=21	=21
*	*	*	*2\right	*	*	*	*	*	*	*	*	*	*	*	*	*	*	*	*	*	*	*	*	*	*	*	*	*	*	*	*	*
2AA/	6 4	.	2a\	.	2f#/	.	2dd\	.	2A\	Vir-	.	2A\	Vir-	.	2f#\	Vir-	.	2dd\	Vir-	.	1.ryy	1.ryy	.	.	.	.	2AA/yy	.	.	.	.	.
2C#X/	8 3	.	2a\	.	2e/	.	2cc#X\	.	2A\	-gi-	.	2A\	-gi-	.	2e\	-gi-	.	2cc#X\	-gi-	.	.	.	.	.	.	.	2C#X/yy	.	.	.	.	.
4D\	8_ 3_	.	2a\	.	2f#/	.	2dd\	.	4D\,<	-ne	.	4A\	-ne	.	4f#\	-ne	.	4dd\	-ne	.	.	.	.	.	.	.	4D\yy	.	.	.	.	.
4F#\	.	.	.	.	.	.	.	.	4F#\	et	.	4d\	et	.	4f#\	et	.	4dd\	et	.	.	.	.	.	.	.	4F#\yy	.	.	.	.	.
=22	=22	=22	=22	=22	=22	=22	=22	=22	=22	=22	=22	=22	=22	=22	=22	=22	=22	=22	=22	=22	=22	=22	=22	=22	=22	=22	=22	=22	=22	=22	=22	=22
4G\	x x	.	4e\	.	4g/	.	(8a#X/L	.	4G\	ho-	.	4e\	ho-	.	4g\	ho-	.	8a#X\L	ho-	.	1.ryy	1.ryy	.	.	.	.	4G\yy	.	.	.	.	.
.	.	.	.	.	.	.	8b/J)	.	.	.	.	.	.	.	.	.	.	8b\J	.	.	.	.	.	.	.	.	.	.	.	.	.	.
4G\	.	.	4e\	.	(8b/L	.	(8gg\L	.	4G\	-mo	.	4e\	-mo	.	8b\L	-mo	.	8gg\L	-mo	.	.	.	.	.	.	.	4G\yy	.	.	.	.	.
.	.	.	.	.	8g/J)	.	8ee\J)	.	.	.	.	.	.	.	8g\J	.	.	8ee\J	.	.	.	.	.	.	.	.	.	.	.	.	.	.
*	*	*	*	*	*	*	*	*	*	*ij	*	*	*	*	*	*	*	*	*	*	*	*	*	*	*	*	*	*	*	*	*	*
4A\	6 4	.	(4d/	.	2f#/	.	2dd\	.	2A\	ho-	.	2d\	fac-	.	2f#\	fac-	.	2dd\	fac-	.	.	.	.	.	.	.	4A\yy	.	.	.	.	.
4A\	.	.	4A/)	.	.	.	.	.	.	.	.	.	.	.	.	.	.	.	.	.	.	.	.	.	.	.	4A\yy	.	.	.	.	.
4AA/	5_ #_	.	(4c#X/	.	2e/	.	2cc#X\	.	2AA/	-mo	.	2A\	-tus	.	2e\	-tus	.	2cc#X\	-tus	.	.	.	.	.	.	.	4AA/yy	.	.	.	.	.
*	*	*	*	*	*	*	*	*	*	*Xij	*	*	*	*	*	*	*	*	*	*	*	*	*	*	*	*	*	*	*	*	*	*
4AA/	.	.	4A/)	.	.	.	.	.	.	.	.	.	.	.	.	.	.	.	.	.	.	.	.	.	.	.	4AA/yy	.	.	.	.	.
!	!	!	!LO:LB:g=original	!	!	!	!	!	!	!	!	!	!	!	!	!	!	!	!	!	!	!	!	!	!	!	!	!	!	!	!	!
=23	=23	=23	=23	=23	=23	=23	=23	=23	=23	=23	=23	=23	=23	=23	=23	=23	=23	=23	=23	=23	=23	=23	=23	=23	=23	=23	=23	=23	=23	=23	=23	=23
2D/	.	.	1c#X	.	(1g	.	(1ee	.	2D\	fa-	.	(1c#X	est	.	(1g	est	.	(1ee	est	.	1.ryy	1.ryy	.	.	.	.	2D/yy	.	.	.	.	.
2AA/	x x	.	.	.	.	.	.	.	2AA/	-ctus	.	.	.	.	.	.	.	.	.	.	.	.	.	.	.	.	2AA/yy	.	.	.	.	.
2DD/	5 3	.	2a 2A/	.	2f#/)	.	2dd|\)	.	2D\	est	.	2d\)	.	.	2f#\)	.	.	2dd\)	.	.	.	.	.	.	.	.	2DD/yy	.	.	.	.	.
!	!	!	!	!	!LO:LB:g=original	!	!LO:LB:g=original	!	!	!	!	!	!	!	!	!	!	!	!	!	!	!	!	!	!	!	!	!	!	!	!	!
=24||	=24||	=24||	=24||	=24||	=24||	=24||	=24	=24	=24||	=24||	=24||	=24||	=24||	=24||	=24||	=24||	=24||	=24||	=24||	=24||	=24||	=24||	=24||	=24||	=24||	=24||	=24||	=24||	=24||	=24||	=24||	=24||
!LO:TX:b:t=unis	!	!	!	!	!	!	!	!	!	!	!	!	!	!	!	!	!	!	!	!	!	!	!LO:TX:b:i:t=Crucifixus	!	!LO:TX:a:t=1	!	!LO:TX:b:t=unis	!	!	!	!LO:TX:a:t=1	!
!	!	!	!	!	!LO:TX:a:t=1	!	!LO:TX:a:t=1	!	!	!	!	!	!	!	!LO:TX:a:t=1	!	!	!LO:TX:a:t=1	!	!	!	!	!LO:TX:a:t=2	!	!LO:TX:b:i:t=Crucifixus	!	!	!	!LO:TX:b:i:t=Crucifixus	!	!LO:TX:b:i:t=Crucifixus	!
!	!	!	!	!LO:DY:b:t=pia:color=red	!	!	!	!	!	!	!	!	!	!	!	!	!	!	!	!	!	!	!LO:N:vis=0	!	!	!	!	!	!	!	!	!
4.d|\	.	.	4.dd|\	p	1.r	.	1.r	.	4.d\	Cru-	.	4.d\	Cru-	.	1.r	.	.	1.r	.	.	1.ryy	1.ryy	0.r	.	1.r	.	4.d|\yy	.	1.ryy	.	1.r	.
8d|\	.	.	8dd|\	.	.	.	.	.	8d\	-ci-	.	8d\	-ci-	.	.	.	.	.	.	.	.	.	.	.	.	.	8d|\yy	.	.	.	.	.
2d|\	.	.	2dd|\	.	.	.	.	.	2d\	-fi-	.	2d\	-fi-	.	.	.	.	.	.	.	.	.	.	.	.	.	2d|\yy	.	.	.	.	.
2D|\	.	.	2d|\	.	.	.	.	.	2D\	-xus	.	2D/	-xus	.	.	.	.	.	.	.	.	.	.	.	.	.	2D|\yy	.	.	.	.	.
=25	=25	=25	=25	=25	=25	=25	=25	=25	=25	=25	=25	=25	=25	=25	=25	=25	=25	=25	=25	=25	=25	=25	=25	=25	=25	=25	=25	=25	=25	=25	=25	=25
!	!	!	!	!	!	!LO:DY:b:t=pia:color=red	!	!LO:DY:b:t=pia:color=red	!	!	!	!	!	!	!	!	!LO:DY:b:t=pia:color=red	!	!	!LO:DY:b:t=pia:color=red	!	!	!	!	!	!LO:DY:a:t=pia:color=red	!	!	!	!	!	!
2r	.	.	1d	.	4.b\	p	4.dd\	p	2r	.	.	2r	.	.	4.b\	et-	p	4.dd\	et-	p	1.ryy	1.ryy	.	.	1dd	p	2ryy	.	2r	.	2r	.
.	.	.	.	.	8b\	.	8dd\	.	.	.	.	.	.	.	8b\	-i-	.	8dd\	-i-	.	.	.	.	.	.	.	.	.	.	.	.	.
!LO:TX:b:i:t=Solo	!	!LO:DY:b:t=pia:color=red	!	!	!	!	!	!	!	!	!	!	!	!	!	!	!	!	!	!	!	!	!	!	!	!	!LO:TX:b:i:t=Solo	!LO:DY:b:t=pia:color=red	!	!	!	!
2G\	.	p	.	.	(4b\	.	(4dd\	.	2r	.	.	2r	.	.	(4b\	-am	.	(4dd\	-am	.	.	.	.	.	.	.	2G\yy	py	2r	.	2r	.
.	.	.	.	.	4g\)	.	4b\)	.	.	.	.	.	.	.	4g\)	.	.	4b\)	.	.	.	.	.	.	.	.	.	.	.	.	.	.
!	!	!	!	!LO:DY:b:color=red	!	!	!	!	!	!	!	!	!	!	!	!	!	!LO:LB:g=original	!	!	!	!	!	!	!	!	!	!	!	!	!	!
4C\	.	.	(4d\	f	(8ccn\L	.	(8ee\L	.	4r	.	.	4r	.	.	8ccn\L	pro	.	8ee\L	pro	.	.	.	.	.	2dd\	.	4C\yy	.	4r	.	4r	.
.	.	.	.	.	8b\	.	8dd\	.	.	.	.	.	.	.	8b\	.	.	8dd\	.	.	.	.	.	.	.	.	.	.	.	.	.	.
!	!	!	!	!	!	!LO:DY:b:rj:t=mfort:color=red	!	!LO:DY:b:rj:t=mfor:color=red	!	!	!	!	!	!LO:DY:b:rj:color=red	!	!	!LO:DY:b:t=forto:color=red	!	!	!LO:DY:b:t=for:color=red	!	!	!	!	!	!	!	!	!	!LO:DY:a:rj:color=red	!	!LO:DY:b:color=red
4D\	6_ #5r_ n_	.	4fn\)	.	8a\	mf	8ccn\	mf	4d\	pro	.	4fn\	pro	mf	8a\	.	f	8ccn\	.	f	.	.	.	.	.	.	4D\yy	.	4dd\	mf	4ffn|\	mf
.	.	.	.	.	8g#X\J)	.	8b\J)	.	.	.	.	.	.	.	8g#X\J	.	.	8b\J	.	.	.	.	.	.	.	.	.	.	.	.	.	.
=26	=26	=26	=26	=26	=26	=26	=26	=26	=26	=26	=26	=26	=26	=26	=26	=26	=26	=26	=26	=26	=26	=26	=26	=26	=26	=26	=26	=26	=26	=26	=26	=26
!	!	!	!	!	!	!	!	!	!	!	!	!	!	!	!	!	!	!	!	!	!	!	!	!	!	!	!	!	!	!	!LO:SIC:v:s=2ffn|\	!
!	!	!	!LO:SIC:v:s=2fn\	!	!LO:SIC:v:s=2g#/	!	!	!	!	!	!	!	!	!	!	!	!	!	!	!	!	!	!	!LO:DY:a:rj:color=red	!	!	!	!	!	!	!	!
2D\	.	.	2f#\	.	2g/	.	2b\	.	2d\	no-	.	2f\	no-	.	2g#X\	no-	.	2b\	no-	.	1.ryy	1.ryy	2dd\	f	2dd\	.	2D\yy	.	(2dd\	.	2ff#|\	.
!	!	!	!	!	!	!	!	!	!LO:LB:g=original	!	!	!	!	!	!	!	!	!	!	!	!	!	!	!	!	!	!	!	!	!	!	!
2C/	6 3	.	2e\	.	2a/	.	2cc\	.	2c\	-bis	.	2e\	-bis	.	2a\	-bis	.	2cc\	-bis	.	.	.	2cc\	.	2ee\	.	2C/yy	.	4cc\)	.	2ee|\	.
.	.	.	.	.	.	.	.	.	.	.	.	.	.	.	.	.	.	.	.	.	.	.	.	.	.	.	.	.	4r	.	.	.
!	!	!	!	!	!	!	!	!	!	!	!	!	!	!	!	!	!	!	!	!	!	!	!	!	!	!	!	!	!	!	!LO:LB:g=original	!
2r	.	.	2r	.	2r	.	2r	.	2r	.	.	2r	.	.	2r	.	.	2r	.	.	.	.	2r	.	2r	.	2ryy	.	2r	.	2r	.
=27	=27	=27	=27	=27	=27	=27	=27	=27	=27	=27	=27	=27	=27	=27	=27	=27	=27	=27	=27	=27	=27	=27	=27	=27	=27	=27	=27	=27	=27	=27	=27	=27
!LO:TX:b:t=unis	!	!	!	!	!LO:TX:a:t=1	!	!LO:TX:a:t=1	!	!	!	!	!	!	!	!LO:TX:a:t=1	!	!	!LO:TX:a:t=1	!	!	!	!	!LO:TX:a:t=2	!	!LO:TX:a:t=1	!	!LO:TX:b:t=unis	!	!LO:TX:a:t=1	!	!LO:TX:a:t=1	!
!	!	!LO:DY:b:color=red	!	!LO:DY:b:color=red	!	!	!	!	!	!	!	!	!	!	!	!	!	!	!	!	!	!	!LO:N:vis=0	!	!	!	!	!LO:DY:b:color=red	!	!	!	!
4.d|\	.	mf	4.dd\	p	1.r	.	1.r	.	4.d\	Cru-	.	4.d\	Cru-	.	1.r	.	.	1.r	.	.	1.ryy	1.ryy	0.r	.	1.r	.	4.d|\yy	mfy	1.r	.	1.r	.
8d|\	.	.	8dd\	.	.	.	.	.	8d\	-ci-	.	8d\	-ci-	.	.	.	.	.	.	.	.	.	.	.	.	.	8d|\yy	.	.	.	.	.
2d|\	.	.	2dd\	.	.	.	.	.	2d\	-fi-	.	2d\	-fi-	.	.	.	.	.	.	.	.	.	.	.	.	.	2d|\yy	.	.	.	.	.
2D|\	.	.	2d\	.	.	.	.	.	2D/	-xus	.	2D/	-xus	.	.	.	.	.	.	.	.	.	.	.	.	.	2D|\yy	.	.	.	.	.
!LO:LB:g=original	!	!	!	!	!	!	!	!	!	!	!	!	!	!	!LO:PB:g=original	!	!	!	!	!	!	!	!	!	!	!	!LO:LB:g=original	!	!	!	!	!
=28	=28	=28	=28	=28	=28	=28	=28	=28	=28	=28	=28	=28	=28	=28	=28	=28	=28	=28	=28	=28	=28	=28	=28	=28	=28	=28	=28	=28	=28	=28	=28	=28
!	!	!LO:DY:b:t=pia:color=red	!	!	!	!LO:DY:b:t=pia:color=red	!	!LO:DY:b:rj:color=red	!	!	!	!	!	!	!	!	!LO:DY:b:color=red	!	!	!LO:DY:b:color=red	!	!	!	!	!	!LO:DY:b:color=red	!	!LO:DY:b:t=pia:color=red	!	!	!	!
2D\	7 5	p	1d	.	4.a/	p	4.cc\	p	2r	.	.	2r	.	.	4.a\	et-	p	4.cc\	et-	p	1.ryy	1.ryy	.	.	1dd	p	2D\yy	py	2r	.	2r	.
.	.	.	.	.	8a/	.	8cc\	.	.	.	.	.	.	.	8a\	-i-	.	8cc\	-i-	.	.	.	.	.	.	.	.	.	.	.	.	.
2F#\	.	.	.	.	(4a/	.	(4cc\	.	2r	.	.	2r	.	.	(4a\	-am	.	(4cc\	-am	.	.	.	.	.	.	.	2F#\yy	.	2r	.	2r	.
.	.	.	.	.	4f#/)	.	4a\)	.	.	.	.	.	.	.	4f#\)	.	.	4a\)	.	.	.	.	.	.	.	.	.	.	.	.	.	.
!	!	!	!	!LO:DY:b:rj:color=red	!	!	!	!LO:DY:b:color=red	!	!	!	!LO:LB:g=original	!	!	!	!	!	!	!	!	!	!	!	!	!	!	!	!	!	!	!	!
4D\	.	.	4d\	p	(8b/L	.	(8dd\L	mf	4r	.	.	4r	.	.	8b\L	pro	.	8dd\L	pro	.	.	.	.	.	2dd\	.	4D\yy	.	4r	.	4r	.
.	.	.	.	.	8a/	.	8cc\	.	.	.	.	.	.	.	8a\	.	.	8cc\	.	.	.	.	.	.	.	.	.	.	.	.	.	.
!	!	!LO:DY:b:rj:color=red	!	!	!	!LO:DY:b:rj:t=mfort:color=red	!	!	!	!	!	!	!	!LO:DY:b:color=red	!	!	!LO:DY:b:color=red	!	!	!LO:DY:b:color=red	!	!	!	!	!	!	!	!LO:DY:b:rj:color=red	!	!LO:DY:a:rj:color=red	!	!LO:DY:b:rj:color=red
4Cn/	6_ #4r_ -_	mf	4e-X\	.	8g/	mf	8b\	.	4c|\	pro	.	4e-X|\	pro	mf	8gn\	.	f	8b\	.	f	.	.	.	.	.	.	4Cn/yy	mfy	4cc\	mf	4ee-X|\	mf
.	.	.	.	.	8f#/J)	.	8a\J)	.	.	.	.	.	.	.	8f#\J	.	.	8a\J	.	.	.	.	.	.	.	.	.	.	.	.	.	.
=29	=29	=29	=29	=29	=29	=29	=29	=29	=29	=29	=29	=29	=29	=29	=29	=29	=29	=29	=29	=29	=29	=29	=29	=29	=29	=29	=29	=29	=29	=29	=29	=29
!	!	!	!LO:SIC:v:s=2e-|\	!	!	!	!	!	!	!	!	!LO:SIC:v:s=2e-|\	!	!	!	!	!	!	!	!	!	!	!	!LO:DY:b:color=red	!	!	!	!	!	!	!LO:SIC:v:s=2ee-|\	!
2C/	.	.	2e|\	.	2f#/	.	2a/	.	2c|\	no-	.	2e|\	no-	.	2f#\	no-	.	2a\	no-	.	1.ryy	1.ryy	2dd\	f	2dd|\	.	2C/yy	.	2cc|\	.	2ee|\	.
4BB/	6 3	.	2d|\	.	2g/	.	2b/	.	2B\	-bis	.	2d|\	-bis	.	2g\	-bis	.	2b\	-bis	.	.	.	2g/	.	2dd|\	.	4BB/yy	.	2b|\	.	2dd|\	.
4G|\	.	.	.	.	.	.	.	.	.	.	.	.	.	.	.	.	.	.	.	.	.	.	.	.	.	.	4G|\yy	.	.	.	.	.
4D|\	.	.	2r	.	2r	.	2r	.	2r	.	.	2r	.	.	2r	.	.	2r	.	.	.	.	2r	.	2r	.	4D|\yy	.	2r	.	2r	.
4BB|>/	.	.	.	.	.	.	.	.	.	.	.	.	.	.	.	.	.	.	.	.	.	.	.	.	.	.	4BB|>/yy	.	.	.	.	.
=30	=30	=30	=30	=30	=30	=30	=30	=30	=30	=30	=30	=30	=30	=30	=30	=30	=30	=30	=30	=30	=30	=30	=30	=30	=30	=30	=30	=30	=30	=30	=30	=30
!LO:TX:b:i:t=Pedale	!	!	!LO:TX:b:i:t=Dolce:color=red	!	!	!	!	!	!	!	!	!	!	!	!	!	!	!	!	!	!	!	!	!	!	!	!LO:TX:b:i:t=Pedale	!	!	!	!	!
!	!	!LO:DY:b:t=pia:color=red	!	!	!	!LO:DY:a	!	!	!LO:TX:a:t=4	!	!	!LO:TX:a:t=4	!	!	!LO:TX:a:i:t=Dolce:color=red	!	!	!LO:TX:a:i:t=Dolce:color=red	!	!	!	!	!	!LO:DY:a	!LO:TX:a:i:t=Dolce:color=red	!	!	!LO:DY:b:t=pia:color=red	!LO:TX:a:t=4	!	!LO:TX:a:t=4	!
!	!	!	!	!	!	!LO:DY:a:t=pia:color=red	!	!LO:DY:b:rj:t=pia:color=red	!LO:N:vis=00	!	!	!LO:N:vis=00	!	!	!	!	!	!	!	!	!	!	!	!LO:DY:b:t=pia:color=red	!	!	!	!	!LO:N:vis=00	!	!LO:N:vis=00	!
2GG|/	.	p	4G|/	.	2B/	p	2g/	p	00.r	.	.	00.r	.	.	2B/	Sub	.	2g\	Sub	.	1.ryy	1.ryy	4G/	p	4G/	.	2GG|/yy	py	00.r	.	00.r	.
.	.	.	4g|\	.	.	.	.	.	.	.	.	.	.	.	.	.	.	.	.	.	.	.	4g/	.	4g/	.	.	.	.	.	.	.
2G|\	.	.	4G|/	.	(4c/	.	(4a/	.	.	.	.	.	.	.	(4c/	pon-	.	(4a\	Pon-	.	.	.	4B/	.	4G/	.	2G|\yy	.	.	.	.	.
.	.	.	4g|\	.	4B/)	.	4g/)	.	.	.	.	.	.	.	4B/)	.	.	4g\)	.	.	.	.	4g/	.	4g/	.	.	.	.	.	.	.
2r	.	.	4G|/	.	(4e/	.	(4cc\	.	.	.	.	.	.	.	(4e\	-ti-	.	(4cc\	-ti-	.	.	.	4G/	.	4G/	.	2ryy	.	.	.	.	.
.	.	.	4g|\	.	4d/)	.	4b\)	.	.	.	.	.	.	.	4d\)	.	.	4b\)	.	.	.	.	4g/	.	4g/	.	.	.	.	.	.	.
=31	=31	=31	=31	=31	=31	=31	=31	=31	=31	=31	=31	=31	=31	=31	=31	=31	=31	=31	=31	=31	=31	=31	=31	=31	=31	=31	=31	=31	=31	=31	=31	=31
!	!	!	!	!	!	!	!	!	!	!	!	!	!	!	!	!	!	!	!	!	!	!	!LO:TX:a:t=3	!	!	!	!	!	!	!	!	!
!	!	!	!	!	!	!	!	!	!	!	!	!	!	!	!	!	!	!	!	!	!	!	!LO:N:vis=0	!	!	!	!	!	!	!	!	!
2GG|/	.	.	4G|/	.	2.d/	.	2.bt\	.	.	.	.	.	.	.	2.d\	-o	.	2.b\	-o	.	1.ryy	1.ryy	0.r	.	4G/	.	2GG|/yy	.	.	.	.	.
.	.	.	4g|\	.	.	.	.	.	.	.	.	.	.	.	.	.	.	.	.	.	.	.	.	.	4g/	.	.	.	.	.	.	.
2G|\	.	.	4G|/	.	.	.	.	.	.	.	.	.	.	.	.	.	.	.	.	.	.	.	.	.	4G/	.	2G|\yy	.	.	.	.	.
.	.	.	4g|\	.	(8c/L	.	8a/L	.	.	.	.	.	.	.	8c/L	Pi-	.	8a\L	Pi-	.	.	.	.	.	4g/	.	.	.	.	.	.	.
.	.	.	.	.	8B/J)	.	8g/J	.	.	.	.	.	.	.	8B/J	.	.	8g\J	.	.	.	.	.	.	.	.	.	.	.	.	.	.
2r	.	.	4G|/	.	4A/	.	4f#/	.	.	.	.	.	.	.	4A/	-la-	.	4f#/	-la-	.	.	.	.	.	4G/	.	2ryy	.	.	.	.	.
.	.	.	4g|\	.	4B/	.	4g/	.	.	.	.	.	.	.	4B/	-to	.	4g/	-to	.	.	.	.	.	4g/	.	.	.	.	.	.	.
!	!	!	!LO:LB:g=original	!	!	!	!LO:LB:g=original	!	!	!	!	!	!	!	!	!	!	!	!	!	!	!	!	!	!LO:LB:g=original	!	!	!	!	!	!	!
=32	=32	=32	=32	=32	=32	=32	=32	=32	=32	=32	=32	=32	=32	=32	=32	=32	=32	=32	=32	=32	=32	=32	=32	=32	=32	=32	=32	=32	=32	=32	=32	=32
2GG|/	.	.	4G|/	.	2g/	.	2b\	.	.	.	.	.	.	.	2g\	Sub	.	2b\	Sub	.	1.ryy	1.ryy	.	.	4G/	.	2GG|/yy	.	.	.	.	.
.	.	.	4g|\	.	.	.	.	.	.	.	.	.	.	.	.	.	.	.	.	.	.	.	.	.	4g/	.	.	.	.	.	.	.
!	!	!	!	!	!	!	!	!	!	!	!	!	!	!	!	!	!	!LO:LB:g=original	!	!	!	!	!	!	!	!	!	!	!	!	!	!
2G|\	.	.	4G|/	.	(4a/	.	(4cc\	.	.	.	.	.	.	.	(4a\	Pon-	.	(4cc\	Pon-	.	.	.	.	.	4G/	.	2G|\yy	.	.	.	.	.
.	.	.	4g|\	.	4g/)	.	4b\)	.	.	.	.	.	.	.	4g\)	.	.	4b\)	.	.	.	.	.	.	4g/	.	.	.	.	.	.	.
2r	.	.	4G|/	.	(4cc\	.	(4ee\	.	.	.	.	.	.	.	(4cc\	-ti-	.	(4ee\	-ti-	.	.	.	.	.	4G/	.	2ryy	.	.	.	.	.
.	.	.	4g|\	.	4b\)	.	4dd\)	.	.	.	.	.	.	.	4b\)	.	.	4dd\)	.	.	.	.	.	.	4g/	.	.	.	.	.	.	.
!	!	!	!	!	!LO:LB:g=original	!	!	!	!	!	!	!	!	!	!	!	!	!	!	!	!	!	!	!	!	!	!	!	!	!	!	!
=33	=33	=33	=33	=33	=33	=33	=33	=33	=33	=33	=33	=33	=33	=33	=33	=33	=33	=33	=33	=33	=33	=33	=33	=33	=33	=33	=33	=33	=33	=33	=33	=33
2GG|/	.	.	4G'/	.	2.b\	.	(2.dd\	.	.	.	.	.	.	.	2.b\	-o	.	2.dd\	-o	.	1.ryy	1.ryy	1.r	.	4G/	.	2GG|/yy	.	.	.	.	.
.	.	.	4g'\	.	.	.	.	.	.	.	.	.	.	.	.	.	.	.	.	.	.	.	.	.	4g/	.	.	.	.	.	.	.
2G|\	.	.	4G'/	.	.	.	.	.	.	.	.	.	.	.	.	.	.	.	.	.	.	.	.	.	4G/	.	2G|\yy	.	.	.	.	.
!	!	!	!	!	!	!	!	!	!	!	!	!	!	!	!LO:LB:g=original	!	!	!	!	!	!	!	!	!	!	!	!	!	!	!	!	!
.	.	.	4g'\	.	8a\L	.	8cc\L	.	.	.	.	.	.	.	8a\L	Pi-	.	8cc\L	Pi-	.	.	.	.	.	4g/	.	.	.	.	.	.	.
.	.	.	.	.	8g\J	.	8b\J)	.	.	.	.	.	.	.	8g\J	.	.	8b\J	.	.	.	.	.	.	.	.	.	.	.	.	.	.
2r	.	.	4G'/	.	4f#\	.	4a\	.	.	.	.	.	.	.	4f#\	-la-	.	4a\	-la-	.	.	.	.	.	4G/	.	2ryy	.	.	.	.	.
.	.	.	4g'\	.	4g\	.	4b\	.	.	.	.	.	.	.	4g\	-to	.	4b\	-to	.	.	.	.	.	4g/	.	.	.	.	.	.	.
!	!	!	!	!	!	!	!	!	!	!	!	!	!	!	!	!	!	!	!	!	!	!	!	!	!	!	!	!	!LO:LB:g=original	!	!	!
=34	=34	=34	=34	=34	=34	=34	=34	=34	=34	=34	=34	=34	=34	=34	=34	=34	=34	=34	=34	=34	=34	=34	=34	=34	=34	=34	=34	=34	=34	=34	=34	=34
!LO:TX:b:t=organo	!	!	!	!	!	!	!	!	!	!	!	!	!	!	!	!	!	!	!	!	!	!	!	!	!	!	!LO:TX:b:t=organo	!	!	!	!	!
!LO:TX:b:i:t=Tutti.	!	!LO:DY:b:rj:color=red	!	!LO:DY:b:rj:color=red	!	!LO:DY:a:t=forto:color=red	!	!LO:DY:b:t=fort:color=red	!	!	!LO:DY:b:color=red	!	!	!LO:DY:a:rj:color=red	!	!	!LO:DY:b:rj:color=red	!	!	!LO:DY:b:rj:color=red	!	!	!	!LO:DY:a:color=red	!	!LO:DY:a:color=red	!LO:TX:b:i:t=Tutti.	!LO:DY:b:rj:color=red	!	!LO:DY:b:rj:color=red	!	!LO:DY:b:rj:color=red
2c 2C\	3 1	ff	2g\	ff	2cc|\	f	2ee|\	f	2c|\	Paſ-	ff	2c|\	Paſ-	ff	2g|\	Paſ-	ff	2ee|\	paſ-	ff	1.ryy	1.ryy	2c|/	ff	2g/	ff	2cyy 2C|\yy	ffy	2cc|\	ff	2een|\	ff
2G 2GG\	5 3	.	2g\	.	2b|\	.	2dd|\	.	2G|\	-sus	.	2B|\	-sus	.	2g|\	-sus	.	2dd|\	-sus	.	.	.	2G|/	.	2g/	.	2Gyy 2GG\yy	.	2b|\	.	2dd|\	.
2r	.	.	2r	.	2r	.	2r	.	2r	.	.	2r	.	.	2r	.	.	2r	.	.	.	.	2r	.	2r	.	2ryy	.	2r	.	2r	.
=35	=35	=35	=35	=35	=35	=35	=35	=35	=35	=35	=35	=35	=35	=35	=35	=35	=35	=35	=35	=35	=35	=35	=35	=35	=35	=35	=35	=35	=35	=35	=35	=35
*	*	*	*	*	*	*	*	*	*	*ij	*	*	*ij	*	*	*ij	*	*	*ij	*	*	*	*	*	*	*	*	*	*	*	*	*
!	!	!	!	!	!	!	!	!	!	!	!	!	!	!	!	!	!	!	!	!	!	!	!	!LO:DY:b:color=red	!	!LO:DY:a:rj:color=red	!	!	!	!	!	!LO:DY:b:rj:color=red
2D 2DD\	3 5	.	2c\	.	2a|/	.	2ff#X|\	.	2D|\	Paſ-	.	2d|\	Paſ-	.	2a|\	Paſ-	.	2ff#|\	paſ-	.	1.ryy	1.ryy	2dd|\	ff	2dd\	ff	2Dyy 2DD\yy	.	2a|/	.	2ff#X|\	ff
2G 2GG\	8 3	.	2d\	.	2b|/	.	2gg|\	.	2G|\	-sus	.	2d|\	-sus	.	2b|\	-sus	.	2gg|\	-sus	.	.	.	2g|/	.	2dd\	.	2Gyy 2GG\yy	.	2b|/	.	2gg|\	.
*	*	*	*	*	*	*	*	*	*	*Xij	*	*	*Xij	*	*	*Xij	*	*	*Xij	*	*	*	*	*	*	*	*	*	*	*	*	*
2r	.	.	2r	.	2r	.	2r	.	2r	.	.	2r	.	.	2r	.	.	2r	.	.	.	.	2r	.	2r	.	2ryy	.	2r	.	2r	.
!LO:LB:g=original	!	!	!	!	!	!	!	!	!	!	!	!	!	!	!	!	!	!	!	!	!	!	!LO:LB:g=original	!	!	!	!LO:LB:g=original	!	!	!	!	!
=36	=36	=36	=36	=36	=36	=36	=36	=36	=36	=36	=36	=36	=36	=36	=36	=36	=36	=36	=36	=36	=36	=36	=36	=36	=36	=36	=36	=36	=36	=36	=36	=36
!	!	!LO:DY:b:t=mfort:color=red	!LO:TX:b:i:t=Dolce:color=red	!	!	!LO:DY:a:rj:color=red	!LO:TX:a:t=1	!	!	!	!LO:DY:b:t=pia:color=red	!	!	!LO:DY:b:t=pia:color=red	!	!	!LO:DY:a:t=pia:color=red	!	!	!LO:DY:a:t=pia:color=red	!	!	!LO:TX:a:t=1	!	!LO:TX:a:t=1	!	!	!LO:DY:b:t=mfort:color=red	!	!LO:DY:a:t=pia:color=red	!	!LO:DY:b:rj:color=red
2GG/	3	mf	4.B/	.	4.g/	mf	1.r	.	4.G\	et	p	4.d\	et	p	4.B/	et	p	4.g\	Et	p	1.ryy	1.ryy	1.r	.	1.r	.	2GG/yy	mfy	2g/	p	2b\	p
.	.	.	8d\	.	8b/	.	.	.	8G\	Se-	.	8d\	Se-	.	8d\	Se-	.	8b\	Se-	.	.	.	.	.	.	.	.	.	.	.	.	.
2C/	7 5	.	4d\	.	(4b/	.	.	.	2C/	-pul-	.	2d\	-pul-	.	(4d\	-pul-	.	(4b\	-pul-	.	.	.	.	.	.	.	2C/yy	.	2a/	.	2cc\	.
.	.	.	4c\	.	4a/)	.	.	.	.	.	.	.	.	.	4c\)	.	.	4a\)	.	.	.	.	.	.	.	.	.	.	.	.	.	.
2D\	5 3	.	4e\	.	(4cc/	.	.	.	2D/	-tus	.	2d\	-tus	.	(4e\	-tus	.	4cc\	-tus	.	.	.	.	.	.	.	2D\yy	.	2f#/	.	2a/	.
.	.	.	4A/	.	4f#/)	.	.	.	.	.	.	.	.	.	4A/)	.	.	4f#/	.	.	.	.	.	.	.	.	.	.	.	.	.	.
=37	=37	=37	=37	=37	=37	=37	=37	=37	=37	=37	=37	=37	=37	=37	=37	=37	=37	=37	=37	=37	=37	=37	=37	=37	=37	=37	=37	=37	=37	=37	=37	=37
.	.	.	.	.	.	.	.	.	.	.	.	.	.	.	.	.	.	8qqa/	.	.	.	.	.	.	.	.	.	.	.	.	.	.
!	!	!	!	!LO:DY:b:t=pia:color=red	!LO:TX:a:i:t=Dolce:color=red	!LO:DY:a:t=piano:color=red	!LO:TX:a:i:t=Dolce:color=red	!LO:DY:b:t=pia:color=red	!	!	!	!	!	!	!	!	!	!	!	!	!	!	!	!LO:DY:a:t=pia:color=red	!	!LO:DY:a:t=pia:color=red	!	!	!	!	!	!
2G 2GG\	.	.	4G/	p	(8B/L	p	4g|/	p	2GG/	est	.	2d\	est	.	2B/	est	.	2g/	est	.	1.ryy	1.ryy	2G/	p	2g/	p	2Gyy 2GG\yy	.	2g/	.	2g/	.
.	.	.	.	.	8d/)	.	.	.	.	.	.	.	.	.	.	.	.	.	.	.	.	.	.	.	.	.	.	.	.	.	.	.
.	.	.	4G/	.	(8B/	.	4r	.	.	.	.	.	.	.	.	.	.	.	.	.	.	.	.	.	.	.	.	.	.	.	.	.
.	.	.	.	.	8d/J)	.	.	.	.	.	.	.	.	.	.	.	.	.	.	.	.	.	.	.	.	.	.	.	.	.	.	.
2r	.	.	4G/	.	(8B/L	.	4gg|\	.	2r	.	.	2r	.	.	2r	.	.	2r	.	.	.	.	2r	.	2r	.	2ryy	.	2r	.	2r	.
.	.	.	.	.	8d/)	.	.	.	.	.	.	.	.	.	.	.	.	.	.	.	.	.	.	.	.	.	.	.	.	.	.	.
.	.	.	4G/	.	(8B/	.	4r	.	.	.	.	.	.	.	.	.	.	.	.	.	.	.	.	.	.	.	.	.	.	.	.	.
.	.	.	.	.	8d/J)	.	.	.	.	.	.	.	.	.	.	.	.	.	.	.	.	.	.	.	.	.	.	.	.	.	.	.
2r	.	.	4F#/	.	(8c/L	.	(8a/L	.	2r	.	.	2r	.	.	2r	.	.	2r	.	.	.	.	2r	.	2r	.	2ryy	.	2r	.	2r	.
.	.	.	.	.	8d/)	.	8g/	.	.	.	.	.	.	.	.	.	.	.	.	.	.	.	.	.	.	.	.	.	.	.	.	.
.	.	.	4F#/	.	(8c/	.	8a/	.	.	.	.	.	.	.	.	.	.	.	.	.	.	.	.	.	.	.	.	.	.	.	.	.
.	.	.	.	.	8d/J)	.	8b/J)	.	.	.	.	.	.	.	.	.	.	.	.	.	.	.	.	.	.	.	.	.	.	.	.	.
=38	=38	=38	=38	=38	=38	=38	=38	=38	=38	=38	=38	=38	=38	=38	=38	=38	=38	=38	=38	=38	=38	=38	=38	=38	=38	=38	=38	=38	=38	=38	=38	=38
!LO:TX:a:t=2	!	!	!	!	!	!	!	!	!LO:TX:a:t=4	!	!	!	!	!	!LO:TX:a:t=4	!	!	!LO:TX:a:t=4	!	!	!	!	!	!	!	!	!LO:TX:a:t=2	!	!LO:TX:a:t=4	!	!LO:TX:a:t=4	!
!LO:N:vis=0	!	!	!	!	!	!	!	!	!LO:N:vis=00	!	!	!LO:N:vis=00	!	!	!LO:N:vis=00	!	!	!LO:N:vis=00	!	!	!	!	!	!	!	!	!LO:N:vis=0	!	!LO:N:vis=00	!	!LO:N:vis=00	!
0.r	.	.	4G/	.	(8B/L	.	4g|/	.	00.r	.	.	00.r	.	.	00.r	.	.	00.r	.	.	1.ryy	1.ryy	2G/	.	2g/	.	0.ryy	.	00.r	.	00.r	.
.	.	.	.	.	8d/)	.	.	.	.	.	.	.	.	.	.	.	.	.	.	.	.	.	.	.	.	.	.	.	.	.	.	.
.	.	.	4G/	.	(8B/	.	4r	.	.	.	.	.	.	.	.	.	.	.	.	.	.	.	.	.	.	.	.	.	.	.	.	.
.	.	.	.	.	8d/J)	.	.	.	.	.	.	.	.	.	.	.	.	.	.	.	.	.	.	.	.	.	.	.	.	.	.	.
.	.	.	4G/	.	(8B/L	.	4gg|\	.	.	.	.	.	.	.	.	.	.	.	.	.	.	.	2r	.	2r	.	.	.	.	.	.	.
.	.	.	.	.	8d/)	.	.	.	.	.	.	.	.	.	.	.	.	.	.	.	.	.	.	.	.	.	.	.	.	.	.	.
.	.	.	4G/	.	(8B/	.	4r	.	.	.	.	.	.	.	.	.	.	.	.	.	.	.	.	.	.	.	.	.	.	.	.	.
.	.	.	.	.	8d/J)	.	.	.	.	.	.	.	.	.	.	.	.	.	.	.	.	.	.	.	.	.	.	.	.	.	.	.
.	.	.	4F#/	.	(8c/L	.	(8a/L	.	.	.	.	.	.	.	.	.	.	.	.	.	.	.	2r	.	2r	.	.	.	.	.	.	.
.	.	.	.	.	8d/)	.	8g/	.	.	.	.	.	.	.	.	.	.	.	.	.	.	.	.	.	.	.	.	.	.	.	.	.
.	.	.	4F#/	.	(8c/	.	8a/	.	.	.	.	.	.	.	.	.	.	.	.	.	.	.	.	.	.	.	.	.	.	.	.	.
.	.	.	.	.	8d/J)	.	8b/J)	.	.	.	.	.	.	.	.	.	.	.	.	.	.	.	.	.	.	.	.	.	.	.	.	.
!	!	!	!	!	!	!	!LO:LB:g=original	!	!	!	!	!	!	!	!	!	!	!	!	!	!	!	!	!	!	!	!	!	!	!	!	!
=39	=39	=39	=39	=39	=39	=39	=39	=39	=39	=39	=39	=39	=39	=39	=39	=39	=39	=39	=39	=39	=39	=39	=39	=39	=39	=39	=39	=39	=39	=39	=39	=39
!	!	!	!LO:TX:a:t=P:problem:t. 39 zapisany repetycją	!	!LO:TX:a:t=P:problem:t. 39 zapisany repetycją	!	!	!	!	!	!	!	!	!	!	!	!	!	!	!	!	!	!	!	!	!	!	!	!	!	!	!
.	.	.	4G/yy	.	(8B/Lyy	.	4g|/	.	.	.	.	.	.	.	.	.	.	.	.	.	1.ryy	1.ryy	2G/	.	2g/	.	.	.	.	.	.	.
.	.	.	.	.	8d/)yy	.	.	.	.	.	.	.	.	.	.	.	.	.	.	.	.	.	.	.	.	.	.	.	.	.	.	.
.	.	.	4G/yy	.	(8B/yy	.	4r	.	.	.	.	.	.	.	.	.	.	.	.	.	.	.	.	.	.	.	.	.	.	.	.	.
.	.	.	.	.	8d/J)yy	.	.	.	.	.	.	.	.	.	.	.	.	.	.	.	.	.	.	.	.	.	.	.	.	.	.	.
.	.	.	4G/yy	.	(8B/Lyy	.	4gg|\	.	.	.	.	.	.	.	.	.	.	.	.	.	.	.	2r	.	2r	.	.	.	.	.	.	.
.	.	.	.	.	8d/)yy	.	.	.	.	.	.	.	.	.	.	.	.	.	.	.	.	.	.	.	.	.	.	.	.	.	.	.
.	.	.	4G/yy	.	(8B/yy	.	4r	.	.	.	.	.	.	.	.	.	.	.	.	.	.	.	.	.	.	.	.	.	.	.	.	.
.	.	.	.	.	8d/J)yy	.	.	.	.	.	.	.	.	.	.	.	.	.	.	.	.	.	.	.	.	.	.	.	.	.	.	.
.	.	.	4F#/yy	.	(8c/Lyy	.	(8a/L	.	.	.	.	.	.	.	.	.	.	.	.	.	.	.	2r	.	2r	.	.	.	.	.	.	.
.	.	.	.	.	8d/)yy	.	8g/	.	.	.	.	.	.	.	.	.	.	.	.	.	.	.	.	.	.	.	.	.	.	.	.	.
.	.	.	4F#/yy	.	(8c/yy	.	8a/	.	.	.	.	.	.	.	.	.	.	.	.	.	.	.	.	.	.	.	.	.	.	.	.	.
.	.	.	.	.	8d/J)yy	.	8b/J)	.	.	.	.	.	.	.	.	.	.	.	.	.	.	.	.	.	.	.	.	.	.	.	.	.
=40	=40	=40	=40	=40	=40	=40	=40	=40	=40	=40	=40	=40	=40	=40	=40	=40	=40	=40	=40	=40	=40	=40	=40	=40	=40	=40	=40	=40	=40	=40	=40	=40
!LO:TX:b:i:t=Pedal.	!	!LO:DY:b:t=pia:color=red	!	!	!	!	!	!	!	!	!	!	!	!	!	!	!	!	!	!	!	!	!	!	!	!	!LO:TX:b:i:t=Pedal.	!LO:DY:b:t=pia:color=red	!	!	!	!
4GG|/	.	p	4d 4G\	.	4B/	.	4g|/	.	.	.	.	.	.	.	.	.	.	.	.	.	1.ryy	1.ryy	2G/	.	2g/	.	4GG|/yy	py	.	.	.	.
4r	.	.	4r	.	4r	.	4r	.	.	.	.	.	.	.	.	.	.	.	.	.	.	.	.	.	.	.	4ryy	.	.	.	.	.
4G|\	.	.	4d 4G\	.	4B/	.	4gg|\	.	.	.	.	.	.	.	.	.	.	.	.	.	.	.	2r	.	2r	.	4G|\yy	.	.	.	.	.
4r	.	.	4r	.	4r	.	4r	.	.	.	.	.	.	.	.	.	.	.	.	.	.	.	.	.	.	.	4ryy	.	.	.	.	.
!	!	!	!	!	!	!	!	!	!	!	!	!	!	!	!	!	!	!	!	!	!	!	!	!LO:DY:a:color=red	!	!LO:DY:b:rj:color=red	!	!	!	!	!	!
4GG|/	.	.	4d 4G\	.	4B/	.	4g|/	.	.	.	.	.	.	.	.	.	.	.	.	.	.	.	2G/	pp	2g/	pp	4GG|/yy	.	.	.	.	.
4r	.	.	4r	.	4r	.	4r	.	.	.	.	.	.	.	.	.	.	.	.	.	.	.	.	.	.	.	4ryy	.	.	.	.	.
=41	=41	=41	=41	=41	=41	=41	=41	=41	=41	=41	=41	=41	=41	=41	=41	=41	=41	=41	=41	=41	=41	=41	=41	=41	=41	=41	=41	=41	=41	=41	=41	=41
2GG|/	.	.	2d 2G\	.	2B/	.	2g/	.	.	.	.	.	.	.	.	.	.	.	.	.	1.ryy	1.ryy	2G/	.	2g/	.	2GG|/yy	.	.	.	.	.
2r	.	.	2r	.	2r	.	2r	.	.	.	.	.	.	.	.	.	.	.	.	.	.	.	2r	.	2r	.	2ryy	.	.	.	.	.
2r	.	.	2r	.	2r	.	2r	.	.	.	.	.	.	.	.	.	.	.	.	.	.	.	2r	.	2r	.	2ryy	.	.	.	.	.
!LO:TX:b:t=Volti	!	!	!	!	!	!	!LO:TX:b:t=V&colon; S&colon;	!	!	!	!	!	!	!	!	!	!	!	!	!	!	!	!	!	!	!	!LO:TX:b:t=Volti	!	!	!	!	!
==	==	==	==	==	==	==	==	==	==	==	==	==	==	==	==	==	==	==	==	==	==	==	==	==	==	==	==	==	==	==	==	==
*-	*-	*-	*-	*-	*-	*-	*-	*-	*-	*-	*-	*-	*-	*-	*-	*-	*-	*-	*-	*-	*-	*-	*-	*-	*-	*-	*-	*-	*-	*-	*-	*-
!!!system-decoration: [(g1)][(g2)][(g3)][(g4)][(g5)]g6
!!!RDF**kern: > = above
!!!RDF**kern: < = below
!!!RDF**kern: | = vertical stroke
!!!ENC: Tomasz Grochalski
!!!END: 2020-10-27
!!!ENC: Katarzyna Serwa
!!!END: 2022-06-04
!!!YEC: Copyright 2022 Narodowy Instytut Fryderyka Chopina (https://polishscores.org)
!!!YEM: License CC-BY-4.0 (https://creativecommons.org/licenses/by/4.0)
